X:1
T:Title
%%score { 1 | 2 }
L:1/8
M:4/4
K:G
V:1 treble nm="Grand Piano"
V:2 bass 
V:1
 z4 z2[Q:1/4=86] [B,D]>[CE] | [B,D][B,G][B,G][CA] [B,G][DF][CE][B,D] |[M:3/4] DA AB [B,G]2 | %3
[M:1/4] G>A |[M:4/4] BBBB dBAG |[M:3/4] [^CB]>[CA] [CA]>[CG] A2 |[M:1/4] D>E | %7
[M:4/4] [B,D][B,G][CG][CA] [B,G][DF][CE][B,D] |[M:3/4] DA A[GB] [Fc]2 |[M:1/4] BA | %10
[M:4/4] Bd d>B [EA]<[EG] ED |[M:7/8] [B,DG]2 [CDA]2 [B,DG]3 |[M:1/8] d |[M:4/4] d2 e2 d3 B | %14
 B2 c2 B3 A |[M:9/8] G>GG- G/[FA]/Bd- d2 d |[M:7/8] [GB]2 [FA]2 G3 |[M:1/8] d |[M:4/4] d2 e2 d3 B | %19
 B2 c2 B3 A |[M:9/8] G>GG- G/[FA]/Bd- d2 d |[M:7/8] [GB]2 [FA]2 [DG]3 |] %22
V:2
 z4 z2 [G,,G,]>[G,,G,] | [G,,G,][G,,D,][G,,D,][G,,D,] [G,,D,][G,,G,][G,,G,][G,,G,] | %2
[M:3/4] [D,F,C][D,F,C] [D,F,C][D,F,D] [G,,G,]2 |[M:1/4] [G,B,]>[G,C] | %4
[M:4/4] [G,D][G,D][G,D][G,D] [G,B,D][G,D][F,A,D][E,B,E] | %5
[M:3/4] [A,,G,]>[A,,G,] [A,,G,]>[A,,G,] [D,F,D]2 |[M:1/4] [D,F,C]>[D,F,C] | %7
[M:4/4] [G,,G,][G,,D,][G,,D,][G,,D,] [G,,D,][G,,G,][G,,G,][G,,G,] | %8
[M:3/4] [D,F,A,][D,F,D] [D,F,D][D,G,] [D,A,]2 |[M:1/4] [D,A,D][D,F,D] | %10
[M:4/4][K:treble] [G,D][G,B,G] [G,B,G]>[K:bass][G,D] [C,C]<[C,C] E,D, |[M:7/8] G,,2 D,2 G,,3 | %12
[M:1/8][K:treble] [G,B,G] |[M:4/4] [G,B,G]2 [G,CG]2 [G,B,G]3 [G,DG] | %14
 [G,DG]2 [G,EG]2 [G,DG]3[K:bass] [G,CD] | %15
[M:9/8] [G,B,D]>[G,B,D][G,B,D]- [G,B,D]/[D,D]/[K:treble][G,DG][G,B,G]- [G,B,G]2 [G,B,G] | %16
[M:7/8][K:bass] [D,D]2 [D,C]2[K:treble] [G,B,D]3 |[M:1/8] [G,B,G] | %18
[M:4/4] [G,B,G]2 [G,CG]2 [G,B,G]3 [G,DG] | [G,DG]2 [G,EG]2 [G,DG]3[K:bass] [G,CD] | %20
[M:9/8] [G,B,D]>[G,B,D][G,B,D]- [G,B,D]/[D,D]/[K:treble][G,DG][G,B,G]- [G,B,G]2 [G,B,G] | %21
[M:7/8][K:bass] [D,D]2 [D,C]2 [G,B,]3 |] %22

